(Terrain CAM - 1mm Ball End Mill)
(Genmitsu 4030 ProVerXL2 / GRBL)
(Generated via OCL PathDropCutter, zigzag scan)
(Stepover: 0.75mm, Sampling: 0.5mm)
(Spindle: 12000 RPM  Feed: 400 mm/min  Plunge: 150 mm/min)

G17 G90 G21   (XY plane, absolute, metric)
G54           (work coordinate system)
M3 S12000  (spindle on CW)
G4 P3         (dwell 3s for spindle up)
G0 Z8.000     (safe height)

G0 Z8.000
G0 Z8.000
G0 X-10.523 Y-10.523
G1 Z0.000 F150
G1 X-10.034 Y-10.523 Z0.000 F400
G1 X-9.544 Y-10.523 Z0.000
G1 X-9.055 Y-10.523 Z0.000
G1 X-8.565 Y-10.523 Z0.000
G1 X-8.076 Y-10.523 Z0.000
G1 X-7.586 Y-10.523 Z0.000
G1 X-7.097 Y-10.523 Z0.000
G1 X-6.607 Y-10.523 Z0.000
G1 X-6.118 Y-10.523 Z0.000
G1 X-5.629 Y-10.523 Z0.000
G1 X-5.139 Y-10.523 Z0.000
G1 X-4.650 Y-10.523 Z0.000
G1 X-4.160 Y-10.523 Z0.000
G1 X-3.671 Y-10.523 Z0.000
G1 X-3.181 Y-10.523 Z0.000
G1 X-2.692 Y-10.523 Z0.000
G1 X-2.203 Y-10.523 Z0.000
G1 X-1.713 Y-10.523 Z0.022
G1 X-1.224 Y-10.523 Z0.231
G1 X-0.734 Y-10.523 Z0.324
G1 X-0.245 Y-10.523 Z0.611
G1 X0.245 Y-10.523 Z0.927
G1 X0.734 Y-10.523 Z0.979
G1 X1.224 Y-10.523 Z0.740
G1 X1.713 Y-10.523 Z0.625
G1 X2.203 Y-10.523 Z0.521
G1 X2.692 Y-10.523 Z0.460
G1 X3.181 Y-10.523 Z0.331
G1 X3.671 Y-10.523 Z0.000
G1 X4.160 Y-10.523 Z0.000
G1 X4.650 Y-10.523 Z0.000
G1 X5.139 Y-10.523 Z0.000
G1 X5.629 Y-10.523 Z0.000
G1 X6.118 Y-10.523 Z0.000
G1 X6.607 Y-10.523 Z0.000
G1 X7.097 Y-10.523 Z0.000
G1 X7.586 Y-10.523 Z0.000
G1 X8.076 Y-10.523 Z0.000
G1 X8.565 Y-10.523 Z0.000
G1 X9.055 Y-10.523 Z0.000
G1 X9.544 Y-10.523 Z0.000
G1 X10.034 Y-10.523 Z0.000
G1 X10.523 Y-10.523 Z0.000
G0 Z8.000
G0 X10.523 Y-9.773
G1 Z0.000 F150
G1 X10.034 Y-9.773 Z0.000 F400
G1 X9.544 Y-9.773 Z0.000
G1 X9.055 Y-9.773 Z0.000
G1 X8.565 Y-9.773 Z0.000
G1 X8.076 Y-9.773 Z0.000
G1 X7.586 Y-9.773 Z0.000
G1 X7.097 Y-9.773 Z0.000
G1 X6.607 Y-9.773 Z0.000
G1 X6.118 Y-9.773 Z0.000
G1 X5.629 Y-9.773 Z0.000
G1 X5.139 Y-9.773 Z0.000
G1 X4.650 Y-9.773 Z0.120
G1 X4.160 Y-9.773 Z0.243
G1 X3.671 Y-9.773 Z0.407
G1 X3.181 Y-9.773 Z0.438
G1 X2.692 Y-9.773 Z0.435
G1 X2.203 Y-9.773 Z0.388
G1 X1.713 Y-9.773 Z0.217
G1 X1.224 Y-9.773 Z0.333
G1 X0.734 Y-9.773 Z0.582
G1 X0.245 Y-9.773 Z0.508
G1 X-0.245 Y-9.773 Z0.438
G1 X-0.734 Y-9.773 Z0.431
G1 X-1.224 Y-9.773 Z0.274
G1 X-1.713 Y-9.773 Z0.167
G1 X-2.203 Y-9.773 Z0.016
G1 X-2.692 Y-9.773 Z0.000
G1 X-3.181 Y-9.773 Z0.000
G1 X-3.671 Y-9.773 Z0.000
G1 X-4.160 Y-9.773 Z0.000
G1 X-4.650 Y-9.773 Z0.000
G1 X-5.139 Y-9.773 Z0.000
G1 X-5.629 Y-9.773 Z0.000
G1 X-6.118 Y-9.773 Z0.000
G1 X-6.607 Y-9.773 Z0.000
G1 X-7.097 Y-9.773 Z0.000
G1 X-7.586 Y-9.773 Z0.000
G1 X-8.076 Y-9.773 Z0.000
G1 X-8.565 Y-9.773 Z0.000
G1 X-9.055 Y-9.773 Z0.000
G1 X-9.544 Y-9.773 Z0.000
G1 X-10.034 Y-9.773 Z0.000
G1 X-10.523 Y-9.773 Z0.000
G0 Z8.000
G0 X-10.523 Y-9.023
G1 Z0.000 F150
G1 X-10.034 Y-9.023 Z0.000 F400
G1 X-9.544 Y-9.023 Z0.000
G1 X-9.055 Y-9.023 Z0.000
G1 X-8.565 Y-9.023 Z0.000
G1 X-8.076 Y-9.023 Z0.000
G1 X-7.586 Y-9.023 Z0.000
G1 X-7.097 Y-9.023 Z0.000
G1 X-6.607 Y-9.023 Z0.000
G1 X-6.118 Y-9.023 Z0.000
G1 X-5.629 Y-9.023 Z0.000
G1 X-5.139 Y-9.023 Z0.000
G1 X-4.650 Y-9.023 Z0.000
G1 X-4.160 Y-9.023 Z0.000
G1 X-3.671 Y-9.023 Z0.000
G1 X-3.181 Y-9.023 Z0.000
G1 X-2.692 Y-9.023 Z0.000
G1 X-2.203 Y-9.023 Z0.052
G1 X-1.713 Y-9.023 Z0.166
G1 X-1.224 Y-9.023 Z0.252
G1 X-0.734 Y-9.023 Z0.293
G1 X-0.245 Y-9.023 Z0.323
G1 X0.245 Y-9.023 Z0.134
G1 X0.734 Y-9.023 Z0.028
G1 X1.224 Y-9.023 Z0.000
G1 X1.713 Y-9.023 Z0.000
G1 X2.203 Y-9.023 Z0.000
G1 X2.692 Y-9.023 Z0.160
G1 X3.181 Y-9.023 Z0.263
G1 X3.671 Y-9.023 Z0.315
G1 X4.160 Y-9.023 Z0.273
G1 X4.650 Y-9.023 Z0.134
G1 X5.139 Y-9.023 Z0.000
G1 X5.629 Y-9.023 Z0.016
G1 X6.118 Y-9.023 Z0.000
G1 X6.607 Y-9.023 Z0.000
G1 X7.097 Y-9.023 Z0.000
G1 X7.586 Y-9.023 Z0.000
G1 X8.076 Y-9.023 Z0.000
G1 X8.565 Y-9.023 Z0.000
G1 X9.055 Y-9.023 Z0.000
G1 X9.544 Y-9.023 Z0.000
G1 X10.034 Y-9.023 Z0.000
G1 X10.523 Y-9.023 Z0.000
G0 Z8.000
G0 X10.523 Y-8.273
G1 Z0.000 F150
G1 X10.034 Y-8.273 Z0.000 F400
G1 X9.544 Y-8.273 Z0.000
G1 X9.055 Y-8.273 Z0.000
G1 X8.565 Y-8.273 Z0.000
G1 X8.076 Y-8.273 Z0.000
G1 X7.586 Y-8.273 Z0.000
G1 X7.097 Y-8.273 Z0.218
G1 X6.607 Y-8.273 Z0.207
G1 X6.118 Y-8.273 Z0.167
G1 X5.629 Y-8.273 Z0.201
G1 X5.139 Y-8.273 Z0.093
G1 X4.650 Y-8.273 Z0.011
G1 X4.160 Y-8.273 Z0.026
G1 X3.671 Y-8.273 Z0.000
G1 X3.181 Y-8.273 Z0.000
G1 X2.692 Y-8.273 Z0.000
G1 X2.203 Y-8.273 Z0.000
G1 X1.713 Y-8.273 Z0.000
G1 X1.224 Y-8.273 Z0.000
G1 X0.734 Y-8.273 Z0.000
G1 X0.245 Y-8.273 Z0.000
G1 X-0.245 Y-8.273 Z0.000
G1 X-0.734 Y-8.273 Z0.000
G1 X-1.224 Y-8.273 Z0.055
G1 X-1.713 Y-8.273 Z0.017
G1 X-2.203 Y-8.273 Z0.000
G1 X-2.692 Y-8.273 Z0.046
G1 X-3.181 Y-8.273 Z0.000
G1 X-3.671 Y-8.273 Z0.000
G1 X-4.160 Y-8.273 Z0.000
G1 X-4.650 Y-8.273 Z0.000
G1 X-5.139 Y-8.273 Z0.000
G1 X-5.629 Y-8.273 Z0.000
G1 X-6.118 Y-8.273 Z0.000
G1 X-6.607 Y-8.273 Z0.000
G1 X-7.097 Y-8.273 Z0.000
G1 X-7.586 Y-8.273 Z0.000
G1 X-8.076 Y-8.273 Z0.000
G1 X-8.565 Y-8.273 Z0.000
G1 X-9.055 Y-8.273 Z0.000
G1 X-9.544 Y-8.273 Z0.000
G1 X-10.034 Y-8.273 Z0.000
G1 X-10.523 Y-8.273 Z0.000
G0 Z8.000
G0 X-10.523 Y-7.523
G1 Z0.000 F150
G1 X-10.034 Y-7.523 Z0.000 F400
G1 X-9.544 Y-7.523 Z0.000
G1 X-9.055 Y-7.523 Z0.000
G1 X-8.565 Y-7.523 Z0.000
G1 X-8.076 Y-7.523 Z0.000
G1 X-7.586 Y-7.523 Z0.000
G1 X-7.097 Y-7.523 Z0.000
G1 X-6.607 Y-7.523 Z0.000
G1 X-6.118 Y-7.523 Z0.021
G1 X-5.629 Y-7.523 Z0.143
G1 X-5.139 Y-7.523 Z0.010
G1 X-4.650 Y-7.523 Z0.000
G1 X-4.160 Y-7.523 Z0.000
G1 X-3.671 Y-7.523 Z0.000
G1 X-3.181 Y-7.523 Z0.000
G1 X-2.692 Y-7.523 Z0.000
G1 X-2.203 Y-7.523 Z0.000
G1 X-1.713 Y-7.523 Z0.000
G1 X-1.224 Y-7.523 Z0.000
G1 X-0.734 Y-7.523 Z0.000
G1 X-0.245 Y-7.523 Z0.000
G1 X0.245 Y-7.523 Z0.000
G1 X0.734 Y-7.523 Z0.000
G1 X1.224 Y-7.523 Z0.000
G1 X1.713 Y-7.523 Z0.000
G1 X2.203 Y-7.523 Z0.000
G1 X2.692 Y-7.523 Z0.000
G1 X3.181 Y-7.523 Z0.000
G1 X3.671 Y-7.523 Z0.000
G1 X4.160 Y-7.523 Z0.000
G1 X4.650 Y-7.523 Z0.004
G1 X5.139 Y-7.523 Z0.000
G1 X5.629 Y-7.523 Z0.000
G1 X6.118 Y-7.523 Z0.138
G1 X6.607 Y-7.523 Z0.299
G1 X7.097 Y-7.523 Z0.233
G1 X7.586 Y-7.523 Z0.117
G1 X8.076 Y-7.523 Z0.165
G1 X8.565 Y-7.523 Z0.000
G1 X9.055 Y-7.523 Z0.000
G1 X9.544 Y-7.523 Z0.000
G1 X10.034 Y-7.523 Z0.000
G1 X10.523 Y-7.523 Z0.000
G0 Z8.000
G0 X10.523 Y-6.773
G1 Z0.000 F150
G1 X10.034 Y-6.773 Z0.000 F400
G1 X9.544 Y-6.773 Z0.000
G1 X9.055 Y-6.773 Z0.000
G1 X8.565 Y-6.773 Z0.000
G1 X8.076 Y-6.773 Z0.000
G1 X7.586 Y-6.773 Z0.000
G1 X7.097 Y-6.773 Z0.000
G1 X6.607 Y-6.773 Z0.121
G1 X6.118 Y-6.773 Z0.080
G1 X5.629 Y-6.773 Z0.198
G1 X5.139 Y-6.773 Z0.086
G1 X4.650 Y-6.773 Z0.000
G1 X4.160 Y-6.773 Z0.000
G1 X3.671 Y-6.773 Z0.000
G1 X3.181 Y-6.773 Z0.000
G1 X2.692 Y-6.773 Z0.000
G1 X2.203 Y-6.773 Z0.000
G1 X1.713 Y-6.773 Z0.000
G1 X1.224 Y-6.773 Z0.000
G1 X0.734 Y-6.773 Z0.000
G1 X0.245 Y-6.773 Z0.000
G1 X-0.245 Y-6.773 Z0.000
G1 X-0.734 Y-6.773 Z0.000
G1 X-1.224 Y-6.773 Z0.000
G1 X-1.713 Y-6.773 Z0.000
G1 X-2.203 Y-6.773 Z0.000
G1 X-2.692 Y-6.773 Z0.000
G1 X-3.181 Y-6.773 Z0.000
G1 X-3.671 Y-6.773 Z0.000
G1 X-4.160 Y-6.773 Z0.000
G1 X-4.650 Y-6.773 Z0.049
G1 X-5.139 Y-6.773 Z0.161
G1 X-5.629 Y-6.773 Z0.292
G1 X-6.118 Y-6.773 Z0.193
G1 X-6.607 Y-6.773 Z0.125
G1 X-7.097 Y-6.773 Z0.000
G1 X-7.586 Y-6.773 Z0.000
G1 X-8.076 Y-6.773 Z0.000
G1 X-8.565 Y-6.773 Z0.000
G1 X-9.055 Y-6.773 Z0.000
G1 X-9.544 Y-6.773 Z0.000
G1 X-10.034 Y-6.773 Z0.000
G1 X-10.523 Y-6.773 Z0.000
G0 Z8.000
G0 X-10.523 Y-6.023
G1 Z0.000 F150
G1 X-10.034 Y-6.023 Z0.000 F400
G1 X-9.544 Y-6.023 Z0.000
G1 X-9.055 Y-6.023 Z0.575
G1 X-8.565 Y-6.023 Z0.479
G1 X-8.076 Y-6.023 Z0.473
G1 X-7.586 Y-6.023 Z0.299
G1 X-7.097 Y-6.023 Z0.307
G1 X-6.607 Y-6.023 Z0.324
G1 X-6.118 Y-6.023 Z0.460
G1 X-5.629 Y-6.023 Z0.440
G1 X-5.139 Y-6.023 Z0.315
G1 X-4.650 Y-6.023 Z0.209
G1 X-4.160 Y-6.023 Z0.033
G1 X-3.671 Y-6.023 Z0.000
G1 X-3.181 Y-6.023 Z0.000
G1 X-2.692 Y-6.023 Z0.000
G1 X-2.203 Y-6.023 Z0.000
G1 X-1.713 Y-6.023 Z0.000
G1 X-1.224 Y-6.023 Z0.000
G1 X-0.734 Y-6.023 Z0.000
G1 X-0.245 Y-6.023 Z0.000
G1 X0.245 Y-6.023 Z0.000
G1 X0.734 Y-6.023 Z0.000
G1 X1.224 Y-6.023 Z0.000
G1 X1.713 Y-6.023 Z0.000
G1 X2.203 Y-6.023 Z0.000
G1 X2.692 Y-6.023 Z0.000
G1 X3.181 Y-6.023 Z0.000
G1 X3.671 Y-6.023 Z0.000
G1 X4.160 Y-6.023 Z0.000
G1 X4.650 Y-6.023 Z0.000
G1 X5.139 Y-6.023 Z0.000
G1 X5.629 Y-6.023 Z0.000
G1 X6.118 Y-6.023 Z0.000
G1 X6.607 Y-6.023 Z0.000
G1 X7.097 Y-6.023 Z0.000
G1 X7.586 Y-6.023 Z0.000
G1 X8.076 Y-6.023 Z0.000
G1 X8.565 Y-6.023 Z0.000
G1 X9.055 Y-6.023 Z0.000
G1 X9.544 Y-6.023 Z0.000
G1 X10.034 Y-6.023 Z0.000
G1 X10.523 Y-6.023 Z0.000
G0 Z8.000
G0 X10.523 Y-5.273
G1 Z0.000 F150
G1 X10.034 Y-5.273 Z0.000 F400
G1 X9.544 Y-5.273 Z0.000
G1 X9.055 Y-5.273 Z0.000
G1 X8.565 Y-5.273 Z0.000
G1 X8.076 Y-5.273 Z0.000
G1 X7.586 Y-5.273 Z0.000
G1 X7.097 Y-5.273 Z0.000
G1 X6.607 Y-5.273 Z0.000
G1 X6.118 Y-5.273 Z0.000
G1 X5.629 Y-5.273 Z0.000
G1 X5.139 Y-5.273 Z0.000
G1 X4.650 Y-5.273 Z0.000
G1 X4.160 Y-5.273 Z0.000
G1 X3.671 Y-5.273 Z0.000
G1 X3.181 Y-5.273 Z0.000
G1 X2.692 Y-5.273 Z0.000
G1 X2.203 Y-5.273 Z0.000
G1 X1.713 Y-5.273 Z0.000
G1 X1.224 Y-5.273 Z0.000
G1 X0.734 Y-5.273 Z0.000
G1 X0.245 Y-5.273 Z0.000
G1 X-0.245 Y-5.273 Z0.000
G1 X-0.734 Y-5.273 Z0.000
G1 X-1.224 Y-5.273 Z0.000
G1 X-1.713 Y-5.273 Z0.000
G1 X-2.203 Y-5.273 Z0.000
G1 X-2.692 Y-5.273 Z0.000
G1 X-3.181 Y-5.273 Z0.000
G1 X-3.671 Y-5.273 Z0.000
G1 X-4.160 Y-5.273 Z0.000
G1 X-4.650 Y-5.273 Z0.096
G1 X-5.139 Y-5.273 Z0.318
G1 X-5.629 Y-5.273 Z0.618
G1 X-6.118 Y-5.273 Z0.731
G1 X-6.607 Y-5.273 Z0.608
G1 X-7.097 Y-5.273 Z0.612
G1 X-7.586 Y-5.273 Z0.678
G1 X-8.076 Y-5.273 Z0.756
G1 X-8.565 Y-5.273 Z0.793
G1 X-9.055 Y-5.273 Z0.822
G1 X-9.544 Y-5.273 Z0.744
G1 X-10.034 Y-5.273 Z0.000
G1 X-10.523 Y-5.273 Z0.000
G0 Z8.000
G0 X-10.523 Y-4.523
G1 Z0.000 F150
G1 X-10.034 Y-4.523 Z0.588 F400
G1 X-9.544 Y-4.523 Z0.753
G1 X-9.055 Y-4.523 Z0.714
G1 X-8.565 Y-4.523 Z0.853
G1 X-8.076 Y-4.523 Z0.920
G1 X-7.586 Y-4.523 Z0.813
G1 X-7.097 Y-4.523 Z0.490
G1 X-6.607 Y-4.523 Z0.469
G1 X-6.118 Y-4.523 Z0.505
G1 X-5.629 Y-4.523 Z0.445
G1 X-5.139 Y-4.523 Z0.415
G1 X-4.650 Y-4.523 Z0.245
G1 X-4.160 Y-4.523 Z0.000
G1 X-3.671 Y-4.523 Z0.000
G1 X-3.181 Y-4.523 Z0.000
G1 X-2.692 Y-4.523 Z0.000
G1 X-2.203 Y-4.523 Z0.000
G1 X-1.713 Y-4.523 Z0.000
G1 X-1.224 Y-4.523 Z0.000
G1 X-0.734 Y-4.523 Z0.000
G1 X-0.245 Y-4.523 Z0.000
G1 X0.245 Y-4.523 Z0.000
G1 X0.734 Y-4.523 Z0.000
G1 X1.224 Y-4.523 Z0.000
G1 X1.713 Y-4.523 Z0.000
G1 X2.203 Y-4.523 Z0.000
G1 X2.692 Y-4.523 Z0.000
G1 X3.181 Y-4.523 Z0.000
G1 X3.671 Y-4.523 Z0.000
G1 X4.160 Y-4.523 Z0.000
G1 X4.650 Y-4.523 Z0.000
G1 X5.139 Y-4.523 Z0.000
G1 X5.629 Y-4.523 Z0.000
G1 X6.118 Y-4.523 Z0.000
G1 X6.607 Y-4.523 Z0.000
G1 X7.097 Y-4.523 Z0.000
G1 X7.586 Y-4.523 Z0.000
G1 X8.076 Y-4.523 Z0.000
G1 X8.565 Y-4.523 Z0.000
G1 X9.055 Y-4.523 Z0.000
G1 X9.544 Y-4.523 Z0.000
G1 X10.034 Y-4.523 Z0.000
G1 X10.523 Y-4.523 Z0.000
G0 Z8.000
G0 X10.523 Y-3.773
G1 Z0.000 F150
G1 X10.034 Y-3.773 Z0.000 F400
G1 X9.544 Y-3.773 Z0.000
G1 X9.055 Y-3.773 Z0.000
G1 X8.565 Y-3.773 Z0.000
G1 X8.076 Y-3.773 Z0.000
G1 X7.586 Y-3.773 Z0.000
G1 X7.097 Y-3.773 Z0.000
G1 X6.607 Y-3.773 Z0.000
G1 X6.118 Y-3.773 Z0.000
G1 X5.629 Y-3.773 Z0.000
G1 X5.139 Y-3.773 Z0.000
G1 X4.650 Y-3.773 Z0.000
G1 X4.160 Y-3.773 Z0.000
G1 X3.671 Y-3.773 Z0.000
G1 X3.181 Y-3.773 Z0.000
G1 X2.692 Y-3.773 Z0.000
G1 X2.203 Y-3.773 Z0.000
G1 X1.713 Y-3.773 Z0.000
G1 X1.224 Y-3.773 Z0.000
G1 X0.734 Y-3.773 Z0.000
G1 X0.245 Y-3.773 Z0.000
G1 X-0.245 Y-3.773 Z0.000
G1 X-0.734 Y-3.773 Z0.000
G1 X-1.224 Y-3.773 Z0.000
G1 X-1.713 Y-3.773 Z0.000
G1 X-2.203 Y-3.773 Z0.000
G1 X-2.692 Y-3.773 Z0.000
G1 X-3.181 Y-3.773 Z0.000
G1 X-3.671 Y-3.773 Z0.000
G1 X-4.160 Y-3.773 Z0.000
G1 X-4.650 Y-3.773 Z0.080
G1 X-5.139 Y-3.773 Z0.246
G1 X-5.629 Y-3.773 Z0.374
G1 X-6.118 Y-3.773 Z0.457
G1 X-6.607 Y-3.773 Z0.395
G1 X-7.097 Y-3.773 Z0.436
G1 X-7.586 Y-3.773 Z0.565
G1 X-8.076 Y-3.773 Z0.768
G1 X-8.565 Y-3.773 Z0.724
G1 X-9.055 Y-3.773 Z0.522
G1 X-9.544 Y-3.773 Z0.677
G1 X-10.034 Y-3.773 Z0.699
G1 X-10.523 Y-3.773 Z0.000
G0 Z8.000
G0 X-10.523 Y-3.023
G1 Z0.623 F150
G1 X-10.034 Y-3.023 Z0.820 F400
G1 X-9.544 Y-3.023 Z0.841
G1 X-9.055 Y-3.023 Z0.763
G1 X-8.565 Y-3.023 Z0.535
G1 X-8.076 Y-3.023 Z0.276
G1 X-7.586 Y-3.023 Z0.275
G1 X-7.097 Y-3.023 Z0.205
G1 X-6.607 Y-3.023 Z0.250
G1 X-6.118 Y-3.023 Z0.392
G1 X-5.629 Y-3.023 Z0.193
G1 X-5.139 Y-3.023 Z0.040
G1 X-4.650 Y-3.023 Z0.108
G1 X-4.160 Y-3.023 Z0.092
G1 X-3.671 Y-3.023 Z0.000
G1 X-3.181 Y-3.023 Z0.000
G1 X-2.692 Y-3.023 Z0.000
G1 X-2.203 Y-3.023 Z0.000
G1 X-1.713 Y-3.023 Z0.001
G1 X-1.224 Y-3.023 Z0.095
G1 X-0.734 Y-3.023 Z0.000
G1 X-0.245 Y-3.023 Z0.000
G1 X0.245 Y-3.023 Z0.151
G1 X0.734 Y-3.023 Z0.231
G1 X1.224 Y-3.023 Z0.324
G1 X1.713 Y-3.023 Z0.319
G1 X2.203 Y-3.023 Z0.146
G1 X2.692 Y-3.023 Z0.000
G1 X3.181 Y-3.023 Z0.085
G1 X3.671 Y-3.023 Z0.068
G1 X4.160 Y-3.023 Z0.000
G1 X4.650 Y-3.023 Z0.000
G1 X5.139 Y-3.023 Z0.000
G1 X5.629 Y-3.023 Z0.000
G1 X6.118 Y-3.023 Z0.000
G1 X6.607 Y-3.023 Z0.006
G1 X7.097 Y-3.023 Z0.167
G1 X7.586 Y-3.023 Z0.048
G1 X8.076 Y-3.023 Z0.000
G1 X8.565 Y-3.023 Z0.000
G1 X9.055 Y-3.023 Z0.000
G1 X9.544 Y-3.023 Z0.000
G1 X10.034 Y-3.023 Z0.000
G1 X10.523 Y-3.023 Z0.000
G0 Z8.000
G0 X10.523 Y-2.273
G1 Z0.000 F150
G1 X10.034 Y-2.273 Z0.000 F400
G1 X9.544 Y-2.273 Z0.000
G1 X9.055 Y-2.273 Z0.000
G1 X8.565 Y-2.273 Z0.000
G1 X8.076 Y-2.273 Z0.000
G1 X7.586 Y-2.273 Z0.188
G1 X7.097 Y-2.273 Z0.170
G1 X6.607 Y-2.273 Z0.156
G1 X6.118 Y-2.273 Z0.071
G1 X5.629 Y-2.273 Z0.000
G1 X5.139 Y-2.273 Z0.000
G1 X4.650 Y-2.273 Z0.000
G1 X4.160 Y-2.273 Z0.003
G1 X3.671 Y-2.273 Z0.049
G1 X3.181 Y-2.273 Z0.137
G1 X2.692 Y-2.273 Z0.252
G1 X2.203 Y-2.273 Z0.461
G1 X1.713 Y-2.273 Z0.468
G1 X1.224 Y-2.273 Z0.526
G1 X0.734 Y-2.273 Z0.524
G1 X0.245 Y-2.273 Z0.312
G1 X-0.245 Y-2.273 Z0.053
G1 X-0.734 Y-2.273 Z0.000
G1 X-1.224 Y-2.273 Z0.000
G1 X-1.713 Y-2.273 Z0.000
G1 X-2.203 Y-2.273 Z0.000
G1 X-2.692 Y-2.273 Z0.000
G1 X-3.181 Y-2.273 Z0.000
G1 X-3.671 Y-2.273 Z0.011
G1 X-4.160 Y-2.273 Z0.078
G1 X-4.650 Y-2.273 Z0.004
G1 X-5.139 Y-2.273 Z0.106
G1 X-5.629 Y-2.273 Z0.291
G1 X-6.118 Y-2.273 Z0.517
G1 X-6.607 Y-2.273 Z0.646
G1 X-7.097 Y-2.273 Z0.546
G1 X-7.586 Y-2.273 Z0.446
G1 X-8.076 Y-2.273 Z0.340
G1 X-8.565 Y-2.273 Z0.546
G1 X-9.055 Y-2.273 Z0.732
G1 X-9.544 Y-2.273 Z0.789
G1 X-10.034 Y-2.273 Z0.759
G1 X-10.523 Y-2.273 Z0.573
G0 Z8.000
G0 X-10.523 Y-1.523
G1 Z0.508 F150
G1 X-10.034 Y-1.523 Z0.658 F400
G1 X-9.544 Y-1.523 Z0.684
G1 X-9.055 Y-1.523 Z0.648
G1 X-8.565 Y-1.523 Z0.647
G1 X-8.076 Y-1.523 Z0.526
G1 X-7.586 Y-1.523 Z0.513
G1 X-7.097 Y-1.523 Z0.742
G1 X-6.607 Y-1.523 Z0.775
G1 X-6.118 Y-1.523 Z0.578
G1 X-5.629 Y-1.523 Z0.397
G1 X-5.139 Y-1.523 Z0.263
G1 X-4.650 Y-1.523 Z0.132
G1 X-4.160 Y-1.523 Z0.000
G1 X-3.671 Y-1.523 Z0.000
G1 X-3.181 Y-1.523 Z0.000
G1 X-2.692 Y-1.523 Z0.000
G1 X-2.203 Y-1.523 Z0.000
G1 X-1.713 Y-1.523 Z0.000
G1 X-1.224 Y-1.523 Z0.000
G1 X-0.734 Y-1.523 Z0.032
G1 X-0.245 Y-1.523 Z0.235
G1 X0.245 Y-1.523 Z0.265
G1 X0.734 Y-1.523 Z0.318
G1 X1.224 Y-1.523 Z0.494
G1 X1.713 Y-1.523 Z0.527
G1 X2.203 Y-1.523 Z0.453
G1 X2.692 Y-1.523 Z0.473
G1 X3.181 Y-1.523 Z0.432
G1 X3.671 Y-1.523 Z0.260
G1 X4.160 Y-1.523 Z0.241
G1 X4.650 Y-1.523 Z0.108
G1 X5.139 Y-1.523 Z0.038
G1 X5.629 Y-1.523 Z0.025
G1 X6.118 Y-1.523 Z0.089
G1 X6.607 Y-1.523 Z0.360
G1 X7.097 Y-1.523 Z0.404
G1 X7.586 Y-1.523 Z0.265
G1 X8.076 Y-1.523 Z0.054
G1 X8.565 Y-1.523 Z0.000
G1 X9.055 Y-1.523 Z0.000
G1 X9.544 Y-1.523 Z0.000
G1 X10.034 Y-1.523 Z0.000
G1 X10.523 Y-1.523 Z0.000
G0 Z8.000
G0 X10.523 Y-0.773
G1 Z0.000 F150
G1 X10.034 Y-0.773 Z0.021 F400
G1 X9.544 Y-0.773 Z0.000
G1 X9.055 Y-0.773 Z0.000
G1 X8.565 Y-0.773 Z0.109
G1 X8.076 Y-0.773 Z0.254
G1 X7.586 Y-0.773 Z0.452
G1 X7.097 Y-0.773 Z0.452
G1 X6.607 Y-0.773 Z0.426
G1 X6.118 Y-0.773 Z0.308
G1 X5.629 Y-0.773 Z0.318
G1 X5.139 Y-0.773 Z0.224
G1 X4.650 Y-0.773 Z0.292
G1 X4.160 Y-0.773 Z0.384
G1 X3.671 Y-0.773 Z0.448
G1 X3.181 Y-0.773 Z0.533
G1 X2.692 Y-0.773 Z0.532
G1 X2.203 Y-0.773 Z0.444
G1 X1.713 Y-0.773 Z0.413
G1 X1.224 Y-0.773 Z0.228
G1 X0.734 Y-0.773 Z0.085
G1 X0.245 Y-0.773 Z0.000
G1 X-0.245 Y-0.773 Z0.000
G1 X-0.734 Y-0.773 Z0.000
G1 X-1.224 Y-0.773 Z0.000
G1 X-1.713 Y-0.773 Z0.000
G1 X-2.203 Y-0.773 Z0.000
G1 X-2.692 Y-0.773 Z0.000
G1 X-3.181 Y-0.773 Z0.000
G1 X-3.671 Y-0.773 Z0.000
G1 X-4.160 Y-0.773 Z0.000
G1 X-4.650 Y-0.773 Z0.144
G1 X-5.139 Y-0.773 Z0.379
G1 X-5.629 Y-0.773 Z0.368
G1 X-6.118 Y-0.773 Z0.502
G1 X-6.607 Y-0.773 Z0.603
G1 X-7.097 Y-0.773 Z0.556
G1 X-7.586 Y-0.773 Z0.437
G1 X-8.076 Y-0.773 Z0.402
G1 X-8.565 Y-0.773 Z0.436
G1 X-9.055 Y-0.773 Z0.422
G1 X-9.544 Y-0.773 Z0.417
G1 X-10.034 Y-0.773 Z0.379
G1 X-10.523 Y-0.773 Z0.325
G0 Z8.000
G0 X-10.523 Y-0.023
G1 Z0.291 F150
G1 X-10.034 Y-0.023 Z0.416 F400
G1 X-9.544 Y-0.023 Z0.410
G1 X-9.055 Y-0.023 Z0.295
G1 X-8.565 Y-0.023 Z0.145
G1 X-8.076 Y-0.023 Z0.372
G1 X-7.586 Y-0.023 Z0.370
G1 X-7.097 Y-0.023 Z0.239
G1 X-6.607 Y-0.023 Z0.087
G1 X-6.118 Y-0.023 Z0.085
G1 X-5.629 Y-0.023 Z0.000
G1 X-5.139 Y-0.023 Z0.000
G1 X-4.650 Y-0.023 Z0.000
G1 X-4.160 Y-0.023 Z0.000
G1 X-3.671 Y-0.023 Z0.000
G1 X-3.181 Y-0.023 Z0.000
G1 X-2.692 Y-0.023 Z0.000
G1 X-2.203 Y-0.023 Z0.000
G1 X-1.713 Y-0.023 Z0.000
G1 X-1.224 Y-0.023 Z0.000
G1 X-0.734 Y-0.023 Z0.000
G1 X-0.245 Y-0.023 Z0.000
G1 X0.245 Y-0.023 Z0.000
G1 X0.734 Y-0.023 Z0.000
G1 X1.224 Y-0.023 Z0.000
G1 X1.713 Y-0.023 Z0.000
G1 X2.203 Y-0.023 Z0.071
G1 X2.692 Y-0.023 Z0.213
G1 X3.181 Y-0.023 Z0.227
G1 X3.671 Y-0.023 Z0.267
G1 X4.160 Y-0.023 Z0.161
G1 X4.650 Y-0.023 Z0.060
G1 X5.139 Y-0.023 Z0.159
G1 X5.629 Y-0.023 Z0.226
G1 X6.118 Y-0.023 Z0.296
G1 X6.607 Y-0.023 Z0.461
G1 X7.097 Y-0.023 Z0.448
G1 X7.586 Y-0.023 Z0.293
G1 X8.076 Y-0.023 Z0.433
G1 X8.565 Y-0.023 Z0.368
G1 X9.055 Y-0.023 Z0.311
G1 X9.544 Y-0.023 Z0.342
G1 X10.034 Y-0.023 Z0.400
G1 X10.523 Y-0.023 Z0.197
G0 Z8.000
G0 X10.523 Y0.727
G1 Z0.363 F150
G1 X10.034 Y0.727 Z0.429 F400
G1 X9.544 Y0.727 Z0.376
G1 X9.055 Y0.727 Z0.367
G1 X8.565 Y0.727 Z0.249
G1 X8.076 Y0.727 Z0.115
G1 X7.586 Y0.727 Z0.119
G1 X7.097 Y0.727 Z0.171
G1 X6.607 Y0.727 Z0.127
G1 X6.118 Y0.727 Z0.000
G1 X5.629 Y0.727 Z0.000
G1 X5.139 Y0.727 Z0.000
G1 X4.650 Y0.727 Z0.000
G1 X4.160 Y0.727 Z0.000
G1 X3.671 Y0.727 Z0.000
G1 X3.181 Y0.727 Z0.000
G1 X2.692 Y0.727 Z0.000
G1 X2.203 Y0.727 Z0.000
G1 X1.713 Y0.727 Z0.000
G1 X1.224 Y0.727 Z0.000
G1 X0.734 Y0.727 Z0.000
G1 X0.245 Y0.727 Z0.000
G1 X-0.245 Y0.727 Z0.000
G1 X-0.734 Y0.727 Z0.000
G1 X-1.224 Y0.727 Z0.000
G1 X-1.713 Y0.727 Z0.000
G1 X-2.203 Y0.727 Z0.000
G1 X-2.692 Y0.727 Z0.000
G1 X-3.181 Y0.727 Z0.000
G1 X-3.671 Y0.727 Z0.000
G1 X-4.160 Y0.727 Z0.000
G1 X-4.650 Y0.727 Z0.000
G1 X-5.139 Y0.727 Z0.000
G1 X-5.629 Y0.727 Z0.000
G1 X-6.118 Y0.727 Z0.000
G1 X-6.607 Y0.727 Z0.000
G1 X-7.097 Y0.727 Z0.000
G1 X-7.586 Y0.727 Z0.000
G1 X-8.076 Y0.727 Z0.000
G1 X-8.565 Y0.727 Z0.097
G1 X-9.055 Y0.727 Z0.459
G1 X-9.544 Y0.727 Z0.673
G1 X-10.034 Y0.727 Z0.675
G1 X-10.523 Y0.727 Z0.489
G0 Z8.000
G0 X-10.523 Y1.477
G1 Z0.357 F150
G1 X-10.034 Y1.477 Z0.403 F400
G1 X-9.544 Y1.477 Z0.424
G1 X-9.055 Y1.477 Z0.291
G1 X-8.565 Y1.477 Z0.068
G1 X-8.076 Y1.477 Z0.017
G1 X-7.586 Y1.477 Z0.142
G1 X-7.097 Y1.477 Z0.094
G1 X-6.607 Y1.477 Z0.042
G1 X-6.118 Y1.477 Z0.057
G1 X-5.629 Y1.477 Z0.000
G1 X-5.139 Y1.477 Z0.000
G1 X-4.650 Y1.477 Z0.000
G1 X-4.160 Y1.477 Z0.000
G1 X-3.671 Y1.477 Z0.000
G1 X-3.181 Y1.477 Z0.000
G1 X-2.692 Y1.477 Z0.000
G1 X-2.203 Y1.477 Z0.000
G1 X-1.713 Y1.477 Z0.000
G1 X-1.224 Y1.477 Z0.000
G1 X-0.734 Y1.477 Z0.000
G1 X-0.245 Y1.477 Z0.000
G1 X0.245 Y1.477 Z0.000
G1 X0.734 Y1.477 Z0.000
G1 X1.224 Y1.477 Z0.000
G1 X1.713 Y1.477 Z0.000
G1 X2.203 Y1.477 Z0.000
G1 X2.692 Y1.477 Z0.000
G1 X3.181 Y1.477 Z0.000
G1 X3.671 Y1.477 Z0.000
G1 X4.160 Y1.477 Z0.000
G1 X4.650 Y1.477 Z0.000
G1 X5.139 Y1.477 Z0.000
G1 X5.629 Y1.477 Z0.000
G1 X6.118 Y1.477 Z0.000
G1 X6.607 Y1.477 Z0.000
G1 X7.097 Y1.477 Z0.000
G1 X7.586 Y1.477 Z0.000
G1 X8.076 Y1.477 Z0.000
G1 X8.565 Y1.477 Z0.110
G1 X9.055 Y1.477 Z0.275
G1 X9.544 Y1.477 Z0.200
G1 X10.034 Y1.477 Z0.217
G1 X10.523 Y1.477 Z0.284
G0 Z8.000
G0 X10.523 Y2.227
G1 Z0.187 F150
G1 X10.034 Y2.227 Z0.323 F400
G1 X9.544 Y2.227 Z0.166
G1 X9.055 Y2.227 Z0.083
G1 X8.565 Y2.227 Z0.058
G1 X8.076 Y2.227 Z0.000
G1 X7.586 Y2.227 Z0.000
G1 X7.097 Y2.227 Z0.000
G1 X6.607 Y2.227 Z0.000
G1 X6.118 Y2.227 Z0.000
G1 X5.629 Y2.227 Z0.000
G1 X5.139 Y2.227 Z0.000
G1 X4.650 Y2.227 Z0.000
G1 X4.160 Y2.227 Z0.000
G1 X3.671 Y2.227 Z0.000
G1 X3.181 Y2.227 Z0.000
G1 X2.692 Y2.227 Z0.000
G1 X2.203 Y2.227 Z0.000
G1 X1.713 Y2.227 Z0.000
G1 X1.224 Y2.227 Z0.000
G1 X0.734 Y2.227 Z0.000
G1 X0.245 Y2.227 Z0.000
G1 X-0.245 Y2.227 Z0.000
G1 X-0.734 Y2.227 Z0.000
G1 X-1.224 Y2.227 Z0.000
G1 X-1.713 Y2.227 Z0.000
G1 X-2.203 Y2.227 Z0.000
G1 X-2.692 Y2.227 Z0.000
G1 X-3.181 Y2.227 Z0.000
G1 X-3.671 Y2.227 Z0.000
G1 X-4.160 Y2.227 Z0.000
G1 X-4.650 Y2.227 Z0.000
G1 X-5.139 Y2.227 Z0.000
G1 X-5.629 Y2.227 Z0.081
G1 X-6.118 Y2.227 Z0.278
G1 X-6.607 Y2.227 Z0.249
G1 X-7.097 Y2.227 Z0.084
G1 X-7.586 Y2.227 Z0.000
G1 X-8.076 Y2.227 Z0.000
G1 X-8.565 Y2.227 Z0.091
G1 X-9.055 Y2.227 Z0.447
G1 X-9.544 Y2.227 Z0.678
G1 X-10.034 Y2.227 Z0.691
G1 X-10.523 Y2.227 Z0.603
G0 Z8.000
G0 X-10.523 Y2.977
G1 Z0.864 F150
G1 X-10.034 Y2.977 Z1.050 F400
G1 X-9.544 Y2.977 Z0.953
G1 X-9.055 Y2.977 Z0.807
G1 X-8.565 Y2.977 Z0.514
G1 X-8.076 Y2.977 Z0.261
G1 X-7.586 Y2.977 Z0.056
G1 X-7.097 Y2.977 Z0.259
G1 X-6.607 Y2.977 Z0.361
G1 X-6.118 Y2.977 Z0.448
G1 X-5.629 Y2.977 Z0.364
G1 X-5.139 Y2.977 Z0.189
G1 X-4.650 Y2.977 Z0.000
G1 X-4.160 Y2.977 Z0.000
G1 X-3.671 Y2.977 Z0.000
G1 X-3.181 Y2.977 Z0.000
G1 X-2.692 Y2.977 Z0.000
G1 X-2.203 Y2.977 Z0.000
G1 X-1.713 Y2.977 Z0.000
G1 X-1.224 Y2.977 Z0.000
G1 X-0.734 Y2.977 Z0.000
G1 X-0.245 Y2.977 Z0.000
G1 X0.245 Y2.977 Z0.000
G1 X0.734 Y2.977 Z0.000
G1 X1.224 Y2.977 Z0.000
G1 X1.713 Y2.977 Z0.000
G1 X2.203 Y2.977 Z0.000
G1 X2.692 Y2.977 Z0.000
G1 X3.181 Y2.977 Z0.000
G1 X3.671 Y2.977 Z0.000
G1 X4.160 Y2.977 Z0.000
G1 X4.650 Y2.977 Z0.000
G1 X5.139 Y2.977 Z0.000
G1 X5.629 Y2.977 Z0.000
G1 X6.118 Y2.977 Z0.000
G1 X6.607 Y2.977 Z0.000
G1 X7.097 Y2.977 Z0.000
G1 X7.586 Y2.977 Z0.000
G1 X8.076 Y2.977 Z0.007
G1 X8.565 Y2.977 Z0.139
G1 X9.055 Y2.977 Z0.239
G1 X9.544 Y2.977 Z0.396
G1 X10.034 Y2.977 Z0.460
G1 X10.523 Y2.977 Z0.337
G0 Z8.000
G0 X10.523 Y3.727
G1 Z0.000 F150
G1 X10.034 Y3.727 Z0.400 F400
G1 X9.544 Y3.727 Z0.385
G1 X9.055 Y3.727 Z0.359
G1 X8.565 Y3.727 Z0.179
G1 X8.076 Y3.727 Z0.000
G1 X7.586 Y3.727 Z0.000
G1 X7.097 Y3.727 Z0.000
G1 X6.607 Y3.727 Z0.000
G1 X6.118 Y3.727 Z0.000
G1 X5.629 Y3.727 Z0.000
G1 X5.139 Y3.727 Z0.000
G1 X4.650 Y3.727 Z0.000
G1 X4.160 Y3.727 Z0.000
G1 X3.671 Y3.727 Z0.000
G1 X3.181 Y3.727 Z0.000
G1 X2.692 Y3.727 Z0.000
G1 X2.203 Y3.727 Z0.000
G1 X1.713 Y3.727 Z0.042
G1 X1.224 Y3.727 Z0.000
G1 X0.734 Y3.727 Z0.000
G1 X0.245 Y3.727 Z0.000
G1 X-0.245 Y3.727 Z0.000
G1 X-0.734 Y3.727 Z0.000
G1 X-1.224 Y3.727 Z0.000
G1 X-1.713 Y3.727 Z0.000
G1 X-2.203 Y3.727 Z0.000
G1 X-2.692 Y3.727 Z0.000
G1 X-3.181 Y3.727 Z0.000
G1 X-3.671 Y3.727 Z0.000
G1 X-4.160 Y3.727 Z0.000
G1 X-4.650 Y3.727 Z0.127
G1 X-5.139 Y3.727 Z0.477
G1 X-5.629 Y3.727 Z0.629
G1 X-6.118 Y3.727 Z0.711
G1 X-6.607 Y3.727 Z0.680
G1 X-7.097 Y3.727 Z0.614
G1 X-7.586 Y3.727 Z0.473
G1 X-8.076 Y3.727 Z0.570
G1 X-8.565 Y3.727 Z0.880
G1 X-9.055 Y3.727 Z1.026
G1 X-9.544 Y3.727 Z1.089
G1 X-10.034 Y3.727 Z1.055
G1 X-10.523 Y3.727 Z0.000
G0 Z8.000
G0 X-10.523 Y4.477
G1 Z0.000 F150
G1 X-10.034 Y4.477 Z0.807 F400
G1 X-9.544 Y4.477 Z0.921
G1 X-9.055 Y4.477 Z0.822
G1 X-8.565 Y4.477 Z0.715
G1 X-8.076 Y4.477 Z0.502
G1 X-7.586 Y4.477 Z0.547
G1 X-7.097 Y4.477 Z0.788
G1 X-6.607 Y4.477 Z0.903
G1 X-6.118 Y4.477 Z0.883
G1 X-5.629 Y4.477 Z0.863
G1 X-5.139 Y4.477 Z0.596
G1 X-4.650 Y4.477 Z0.134
G1 X-4.160 Y4.477 Z0.000
G1 X-3.671 Y4.477 Z0.000
G1 X-3.181 Y4.477 Z0.000
G1 X-2.692 Y4.477 Z0.000
G1 X-2.203 Y4.477 Z0.000
G1 X-1.713 Y4.477 Z0.000
G1 X-1.224 Y4.477 Z0.000
G1 X-0.734 Y4.477 Z0.000
G1 X-0.245 Y4.477 Z0.000
G1 X0.245 Y4.477 Z0.000
G1 X0.734 Y4.477 Z0.000
G1 X1.224 Y4.477 Z0.000
G1 X1.713 Y4.477 Z0.000
G1 X2.203 Y4.477 Z0.000
G1 X2.692 Y4.477 Z0.000
G1 X3.181 Y4.477 Z0.000
G1 X3.671 Y4.477 Z0.000
G1 X4.160 Y4.477 Z0.000
G1 X4.650 Y4.477 Z0.000
G1 X5.139 Y4.477 Z0.000
G1 X5.629 Y4.477 Z0.000
G1 X6.118 Y4.477 Z0.000
G1 X6.607 Y4.477 Z0.000
G1 X7.097 Y4.477 Z0.000
G1 X7.586 Y4.477 Z0.000
G1 X8.076 Y4.477 Z0.228
G1 X8.565 Y4.477 Z0.332
G1 X9.055 Y4.477 Z0.329
G1 X9.544 Y4.477 Z0.361
G1 X10.034 Y4.477 Z0.244
G1 X10.523 Y4.477 Z0.000
G0 Z8.000
G0 X10.523 Y5.227
G1 Z0.000 F150
G1 X10.034 Y5.227 Z0.000 F400
G1 X9.544 Y5.227 Z0.406
G1 X9.055 Y5.227 Z0.436
G1 X8.565 Y5.227 Z0.358
G1 X8.076 Y5.227 Z0.487
G1 X7.586 Y5.227 Z0.488
G1 X7.097 Y5.227 Z0.254
G1 X6.607 Y5.227 Z0.000
G1 X6.118 Y5.227 Z0.000
G1 X5.629 Y5.227 Z0.000
G1 X5.139 Y5.227 Z0.000
G1 X4.650 Y5.227 Z0.000
G1 X4.160 Y5.227 Z0.000
G1 X3.671 Y5.227 Z0.000
G1 X3.181 Y5.227 Z0.000
G1 X2.692 Y5.227 Z0.000
G1 X2.203 Y5.227 Z0.000
G1 X1.713 Y5.227 Z0.000
G1 X1.224 Y5.227 Z0.000
G1 X0.734 Y5.227 Z0.000
G1 X0.245 Y5.227 Z0.000
G1 X-0.245 Y5.227 Z0.000
G1 X-0.734 Y5.227 Z0.000
G1 X-1.224 Y5.227 Z0.000
G1 X-1.713 Y5.227 Z0.000
G1 X-2.203 Y5.227 Z0.000
G1 X-2.692 Y5.227 Z0.000
G1 X-3.181 Y5.227 Z0.000
G1 X-3.671 Y5.227 Z0.000
G1 X-4.160 Y5.227 Z0.000
G1 X-4.650 Y5.227 Z0.100
G1 X-5.139 Y5.227 Z0.552
G1 X-5.629 Y5.227 Z0.817
G1 X-6.118 Y5.227 Z0.815
G1 X-6.607 Y5.227 Z0.816
G1 X-7.097 Y5.227 Z0.596
G1 X-7.586 Y5.227 Z0.415
G1 X-8.076 Y5.227 Z0.376
G1 X-8.565 Y5.227 Z0.337
G1 X-9.055 Y5.227 Z0.358
G1 X-9.544 Y5.227 Z0.410
G1 X-10.034 Y5.227 Z0.000
G1 X-10.523 Y5.227 Z0.000
G0 Z8.000
G0 X-10.523 Y5.977
G1 Z0.000 F150
G1 X-10.034 Y5.977 Z0.000 F400
G1 X-9.544 Y5.977 Z0.000
G1 X-9.055 Y5.977 Z0.040
G1 X-8.565 Y5.977 Z0.000
G1 X-8.076 Y5.977 Z0.000
G1 X-7.586 Y5.977 Z0.066
G1 X-7.097 Y5.977 Z0.382
G1 X-6.607 Y5.977 Z0.588
G1 X-6.118 Y5.977 Z0.657
G1 X-5.629 Y5.977 Z0.534
G1 X-5.139 Y5.977 Z0.297
G1 X-4.650 Y5.977 Z0.075
G1 X-4.160 Y5.977 Z0.000
G1 X-3.671 Y5.977 Z0.000
G1 X-3.181 Y5.977 Z0.000
G1 X-2.692 Y5.977 Z0.000
G1 X-2.203 Y5.977 Z0.000
G1 X-1.713 Y5.977 Z0.000
G1 X-1.224 Y5.977 Z0.017
G1 X-0.734 Y5.977 Z0.070
G1 X-0.245 Y5.977 Z0.170
G1 X0.245 Y5.977 Z0.103
G1 X0.734 Y5.977 Z0.044
G1 X1.224 Y5.977 Z0.031
G1 X1.713 Y5.977 Z0.074
G1 X2.203 Y5.977 Z0.013
G1 X2.692 Y5.977 Z0.000
G1 X3.181 Y5.977 Z0.000
G1 X3.671 Y5.977 Z0.000
G1 X4.160 Y5.977 Z0.000
G1 X4.650 Y5.977 Z0.000
G1 X5.139 Y5.977 Z0.000
G1 X5.629 Y5.977 Z0.000
G1 X6.118 Y5.977 Z0.000
G1 X6.607 Y5.977 Z0.036
G1 X7.097 Y5.977 Z0.335
G1 X7.586 Y5.977 Z0.654
G1 X8.076 Y5.977 Z0.614
G1 X8.565 Y5.977 Z0.562
G1 X9.055 Y5.977 Z0.567
G1 X9.544 Y5.977 Z0.000
G1 X10.034 Y5.977 Z0.000
G1 X10.523 Y5.977 Z0.000
G0 Z8.000
G0 X10.523 Y6.727
G1 Z0.000 F150
G1 X10.034 Y6.727 Z0.000 F400
G1 X9.544 Y6.727 Z0.000
G1 X9.055 Y6.727 Z0.189
G1 X8.565 Y6.727 Z0.509
G1 X8.076 Y6.727 Z0.549
G1 X7.586 Y6.727 Z0.498
G1 X7.097 Y6.727 Z0.132
G1 X6.607 Y6.727 Z0.000
G1 X6.118 Y6.727 Z0.000
G1 X5.629 Y6.727 Z0.000
G1 X5.139 Y6.727 Z0.000
G1 X4.650 Y6.727 Z0.000
G1 X4.160 Y6.727 Z0.000
G1 X3.671 Y6.727 Z0.000
G1 X3.181 Y6.727 Z0.000
G1 X2.692 Y6.727 Z0.000
G1 X2.203 Y6.727 Z0.204
G1 X1.713 Y6.727 Z0.223
G1 X1.224 Y6.727 Z0.009
G1 X0.734 Y6.727 Z0.000
G1 X0.245 Y6.727 Z0.000
G1 X-0.245 Y6.727 Z0.127
G1 X-0.734 Y6.727 Z0.176
G1 X-1.224 Y6.727 Z0.111
G1 X-1.713 Y6.727 Z0.000
G1 X-2.203 Y6.727 Z0.000
G1 X-2.692 Y6.727 Z0.000
G1 X-3.181 Y6.727 Z0.000
G1 X-3.671 Y6.727 Z0.000
G1 X-4.160 Y6.727 Z0.000
G1 X-4.650 Y6.727 Z0.000
G1 X-5.139 Y6.727 Z0.096
G1 X-5.629 Y6.727 Z0.337
G1 X-6.118 Y6.727 Z0.528
G1 X-6.607 Y6.727 Z0.481
G1 X-7.097 Y6.727 Z0.313
G1 X-7.586 Y6.727 Z0.078
G1 X-8.076 Y6.727 Z0.000
G1 X-8.565 Y6.727 Z0.000
G1 X-9.055 Y6.727 Z0.000
G1 X-9.544 Y6.727 Z0.000
G1 X-10.034 Y6.727 Z0.000
G1 X-10.523 Y6.727 Z0.000
G0 Z8.000
G0 X-10.523 Y7.477
G1 Z0.000 F150
G1 X-10.034 Y7.477 Z0.000 F400
G1 X-9.544 Y7.477 Z0.000
G1 X-9.055 Y7.477 Z0.000
G1 X-8.565 Y7.477 Z0.000
G1 X-8.076 Y7.477 Z0.000
G1 X-7.586 Y7.477 Z0.122
G1 X-7.097 Y7.477 Z0.293
G1 X-6.607 Y7.477 Z0.419
G1 X-6.118 Y7.477 Z0.484
G1 X-5.629 Y7.477 Z0.499
G1 X-5.139 Y7.477 Z0.226
G1 X-4.650 Y7.477 Z0.000
G1 X-4.160 Y7.477 Z0.000
G1 X-3.671 Y7.477 Z0.000
G1 X-3.181 Y7.477 Z0.000
G1 X-2.692 Y7.477 Z0.000
G1 X-2.203 Y7.477 Z0.000
G1 X-1.713 Y7.477 Z0.000
G1 X-1.224 Y7.477 Z0.000
G1 X-0.734 Y7.477 Z0.006
G1 X-0.245 Y7.477 Z0.000
G1 X0.245 Y7.477 Z0.000
G1 X0.734 Y7.477 Z0.000
G1 X1.224 Y7.477 Z0.000
G1 X1.713 Y7.477 Z0.234
G1 X2.203 Y7.477 Z0.330
G1 X2.692 Y7.477 Z0.013
G1 X3.181 Y7.477 Z0.035
G1 X3.671 Y7.477 Z0.052
G1 X4.160 Y7.477 Z0.069
G1 X4.650 Y7.477 Z0.000
G1 X5.139 Y7.477 Z0.000
G1 X5.629 Y7.477 Z0.000
G1 X6.118 Y7.477 Z0.000
G1 X6.607 Y7.477 Z0.000
G1 X7.097 Y7.477 Z0.000
G1 X7.586 Y7.477 Z0.275
G1 X8.076 Y7.477 Z0.377
G1 X8.565 Y7.477 Z0.000
G1 X9.055 Y7.477 Z0.000
G1 X9.544 Y7.477 Z0.000
G1 X10.034 Y7.477 Z0.000
G1 X10.523 Y7.477 Z0.000
G0 Z8.000
G0 X10.523 Y8.227
G1 Z0.000 F150
G1 X10.034 Y8.227 Z0.000 F400
G1 X9.544 Y8.227 Z0.000
G1 X9.055 Y8.227 Z0.000
G1 X8.565 Y8.227 Z0.000
G1 X8.076 Y8.227 Z0.000
G1 X7.586 Y8.227 Z0.000
G1 X7.097 Y8.227 Z0.000
G1 X6.607 Y8.227 Z0.000
G1 X6.118 Y8.227 Z0.000
G1 X5.629 Y8.227 Z0.000
G1 X5.139 Y8.227 Z0.000
G1 X4.650 Y8.227 Z0.000
G1 X4.160 Y8.227 Z0.192
G1 X3.671 Y8.227 Z0.198
G1 X3.181 Y8.227 Z0.142
G1 X2.692 Y8.227 Z0.027
G1 X2.203 Y8.227 Z0.055
G1 X1.713 Y8.227 Z0.055
G1 X1.224 Y8.227 Z0.195
G1 X0.734 Y8.227 Z0.271
G1 X0.245 Y8.227 Z0.185
G1 X-0.245 Y8.227 Z0.000
G1 X-0.734 Y8.227 Z0.000
G1 X-1.224 Y8.227 Z0.044
G1 X-1.713 Y8.227 Z0.136
G1 X-2.203 Y8.227 Z0.000
G1 X-2.692 Y8.227 Z0.000
G1 X-3.181 Y8.227 Z0.000
G1 X-3.671 Y8.227 Z0.000
G1 X-4.160 Y8.227 Z0.000
G1 X-4.650 Y8.227 Z0.000
G1 X-5.139 Y8.227 Z0.111
G1 X-5.629 Y8.227 Z0.349
G1 X-6.118 Y8.227 Z0.291
G1 X-6.607 Y8.227 Z0.315
G1 X-7.097 Y8.227 Z0.233
G1 X-7.586 Y8.227 Z0.010
G1 X-8.076 Y8.227 Z0.000
G1 X-8.565 Y8.227 Z0.000
G1 X-9.055 Y8.227 Z0.000
G1 X-9.544 Y8.227 Z0.000
G1 X-10.034 Y8.227 Z0.000
G1 X-10.523 Y8.227 Z0.000
G0 Z8.000
G0 X-10.523 Y8.977
G1 Z0.000 F150
G1 X-10.034 Y8.977 Z0.000 F400
G1 X-9.544 Y8.977 Z0.000
G1 X-9.055 Y8.977 Z0.000
G1 X-8.565 Y8.977 Z0.000
G1 X-8.076 Y8.977 Z0.000
G1 X-7.586 Y8.977 Z0.000
G1 X-7.097 Y8.977 Z0.000
G1 X-6.607 Y8.977 Z0.069
G1 X-6.118 Y8.977 Z0.345
G1 X-5.629 Y8.977 Z0.457
G1 X-5.139 Y8.977 Z0.383
G1 X-4.650 Y8.977 Z0.127
G1 X-4.160 Y8.977 Z0.047
G1 X-3.671 Y8.977 Z0.000
G1 X-3.181 Y8.977 Z0.000
G1 X-2.692 Y8.977 Z0.000
G1 X-2.203 Y8.977 Z0.000
G1 X-1.713 Y8.977 Z0.000
G1 X-1.224 Y8.977 Z0.000
G1 X-0.734 Y8.977 Z0.000
G1 X-0.245 Y8.977 Z0.041
G1 X0.245 Y8.977 Z0.222
G1 X0.734 Y8.977 Z0.270
G1 X1.224 Y8.977 Z0.331
G1 X1.713 Y8.977 Z0.125
G1 X2.203 Y8.977 Z0.000
G1 X2.692 Y8.977 Z0.091
G1 X3.181 Y8.977 Z0.142
G1 X3.671 Y8.977 Z0.040
G1 X4.160 Y8.977 Z0.000
G1 X4.650 Y8.977 Z0.000
G1 X5.139 Y8.977 Z0.000
G1 X5.629 Y8.977 Z0.000
G1 X6.118 Y8.977 Z0.000
G1 X6.607 Y8.977 Z0.000
G1 X7.097 Y8.977 Z0.000
G1 X7.586 Y8.977 Z0.000
G1 X8.076 Y8.977 Z0.000
G1 X8.565 Y8.977 Z0.000
G1 X9.055 Y8.977 Z0.000
G1 X9.544 Y8.977 Z0.000
G1 X10.034 Y8.977 Z0.000
G1 X10.523 Y8.977 Z0.000
G0 Z8.000
G0 X10.523 Y9.727
G1 Z0.000 F150
G1 X10.034 Y9.727 Z0.000 F400
G1 X9.544 Y9.727 Z0.000
G1 X9.055 Y9.727 Z0.000
G1 X8.565 Y9.727 Z0.000
G1 X8.076 Y9.727 Z0.000
G1 X7.586 Y9.727 Z0.000
G1 X7.097 Y9.727 Z0.000
G1 X6.607 Y9.727 Z0.000
G1 X6.118 Y9.727 Z0.000
G1 X5.629 Y9.727 Z0.000
G1 X5.139 Y9.727 Z0.000
G1 X4.650 Y9.727 Z0.000
G1 X4.160 Y9.727 Z0.000
G1 X3.671 Y9.727 Z0.000
G1 X3.181 Y9.727 Z0.000
G1 X2.692 Y9.727 Z0.016
G1 X2.203 Y9.727 Z0.064
G1 X1.713 Y9.727 Z0.182
G1 X1.224 Y9.727 Z0.220
G1 X0.734 Y9.727 Z0.085
G1 X0.245 Y9.727 Z0.000
G1 X-0.245 Y9.727 Z0.000
G1 X-0.734 Y9.727 Z0.000
G1 X-1.224 Y9.727 Z0.000
G1 X-1.713 Y9.727 Z0.000
G1 X-2.203 Y9.727 Z0.000
G1 X-2.692 Y9.727 Z0.000
G1 X-3.181 Y9.727 Z0.000
G1 X-3.671 Y9.727 Z0.136
G1 X-4.160 Y9.727 Z0.480
G1 X-4.650 Y9.727 Z0.527
G1 X-5.139 Y9.727 Z0.436
G1 X-5.629 Y9.727 Z0.000
G1 X-6.118 Y9.727 Z0.000
G1 X-6.607 Y9.727 Z0.000
G1 X-7.097 Y9.727 Z0.000
G1 X-7.586 Y9.727 Z0.000
G1 X-8.076 Y9.727 Z0.000
G1 X-8.565 Y9.727 Z0.000
G1 X-9.055 Y9.727 Z0.000
G1 X-9.544 Y9.727 Z0.000
G1 X-10.034 Y9.727 Z0.000
G1 X-10.523 Y9.727 Z0.000
G0 Z8.000
G0 X-10.523 Y10.477
G1 Z0.000 F150
G1 X-10.034 Y10.477 Z0.000 F400
G1 X-9.544 Y10.477 Z0.000
G1 X-9.055 Y10.477 Z0.000
G1 X-8.565 Y10.477 Z0.000
G1 X-8.076 Y10.477 Z0.000
G1 X-7.586 Y10.477 Z0.000
G1 X-7.097 Y10.477 Z0.000
G1 X-6.607 Y10.477 Z0.000
G1 X-6.118 Y10.477 Z0.000
G1 X-5.629 Y10.477 Z0.000
G1 X-5.139 Y10.477 Z0.000
G1 X-4.650 Y10.477 Z0.000
G1 X-4.160 Y10.477 Z0.000
G1 X-3.671 Y10.477 Z0.000
G1 X-3.181 Y10.477 Z0.000
G1 X-2.692 Y10.477 Z0.000
G1 X-2.203 Y10.477 Z0.000
G1 X-1.713 Y10.477 Z0.000
G1 X-1.224 Y10.477 Z0.077
G1 X-0.734 Y10.477 Z0.237
G1 X-0.245 Y10.477 Z0.233
G1 X0.245 Y10.477 Z0.215
G1 X0.734 Y10.477 Z0.139
G1 X1.224 Y10.477 Z0.126
G1 X1.713 Y10.477 Z0.131
G1 X2.203 Y10.477 Z0.000
G1 X2.692 Y10.477 Z0.000
G1 X3.181 Y10.477 Z0.000
G1 X3.671 Y10.477 Z0.000
G1 X4.160 Y10.477 Z0.000
G1 X4.650 Y10.477 Z0.000
G1 X5.139 Y10.477 Z0.000
G1 X5.629 Y10.477 Z0.000
G1 X6.118 Y10.477 Z0.000
G1 X6.607 Y10.477 Z0.000
G1 X7.097 Y10.477 Z0.000
G1 X7.586 Y10.477 Z0.000
G1 X8.076 Y10.477 Z0.000
G1 X8.565 Y10.477 Z0.000
G1 X9.055 Y10.477 Z0.000
G1 X9.544 Y10.477 Z0.000
G1 X10.034 Y10.477 Z0.000
G1 X10.523 Y10.477 Z0.000
G0 Z8.000

G0 Z8.000     (retract to safe height)
M5            (spindle off)
G0 X0 Y0      (park)
M2            (end of program)